svg/barrel_outline.svg

<svg xmlns="http://www.w3.org/2000/svg" viewBox="0 0 24 24"><path d="M9 13.05C9 14.68 10.34 16 12 16s3-1.32 3-2.95c0-1.31-.53-1.69-3-4.55-2.5 2.88-3 3.25-3 4.55M20 13c.55 0 1-.45 1-1s-.45-1-1-1h-1V5h1c.55 0 1-.45 1-1s-.45-1-1-1H4c-.55 0-1 .45-1 1s.45 1 1 1h1v6H4c-.55 0-1 .45-1 1s.45 1 1 1h1v6H4c-.55 0-1 .45-1 1s.45 1 1 1h16c.55 0 1-.45 1-1s-.45-1-1-1h-1v-6zm-3 6H7v-6c.55 0 1-.45 1-1s-.45-1-1-1V5h10v6c-.55 0-1 .45-1 1s.45 1 1 1z"/></svg>

<svg xmlns="http://www.w3.org/2000/svg" id="mdi-barrel-outline" viewBox="0 0 24 24"><path d="M9 13.05C9 14.68 10.34 16 12 16S15 14.68 15 13.05C15 11.74 14.47 11.36 12 8.5C9.5 11.38 9 11.75 9 13.05M20 13C20.55 13 21 12.55 21 12S20.55 11 20 11H19V5H20C20.55 5 21 4.55 21 4S20.55 3 20 3H4C3.45 3 3 3.45 3 4S3.45 5 4 5H5V11H4C3.45 11 3 11.45 3 12S3.45 13 4 13H5V19H4C3.45 19 3 19.45 3 20S3.45 21 4 21H20C20.55 21 21 20.55 21 20S20.55 19 20 19H19V13H20M17 19H7V13C7.55 13 8 12.55 8 12S7.55 11 7 11V5H17V11C16.45 11 16 11.45 16 12S16.45 13 17 13V19Z" /></svg>
